tools/download-figma-icons/icons/solid/washing-machine.svg

<svg width="24" height="24" viewBox="0 0 24 24" fill="none" xmlns="http://www.w3.org/2000/svg">
<path fill-rule="evenodd" clip-rule="evenodd" d="M2.25 0H21.75C22.1625 0 22.5 0.3375 22.5 0.75V23.25C22.5 23.6625 22.1625 24 21.75 24H2.25C1.8375 24 1.5 23.6625 1.5 23.25V0.75C1.5 0.3375 1.8375 0 2.25 0ZM17.25 3.375C17.25 2.7525 16.7475 2.25 16.125 2.25C15.5025 2.25 15 2.7525 15 3.375C15 3.9975 15.5025 4.5 16.125 4.5C16.7475 4.5 17.25 3.9975 17.25 3.375ZM4.875 13.875C4.875 17.805 8.07 21 12 21C15.93 21 19.125 17.805 19.125 13.875C19.125 9.945 15.93 6.75 12 6.75C8.07 6.75 4.875 9.945 4.875 13.875ZM18 3.375C18 3.9975 18.5025 4.5 19.125 4.5C19.7475 4.5 20.25 3.9975 20.25 3.375C20.25 2.7525 19.7475 2.25 19.125 2.25C18.5025 2.25 18 2.7525 18 3.375ZM17.5501 14.73C17.4301 14.6625 17.3026 14.595 17.1826 14.535L17.1599 14.5228C16.5171 14.1754 15.9612 13.875 14.7751 13.875C13.5817 13.875 13.0188 14.1791 12.3709 14.5292L12.3601 14.535L12.3404 14.5455C11.6177 14.933 10.7934 15.375 9.23257 15.375C7.89757 15.375 7.10257 15.0525 6.44257 14.715C6.85507 17.415 9.18757 19.5 12.0001 19.5C14.8126 19.5 17.1376 17.4225 17.5501 14.73Z" fill="black"/>
</svg>

<svg xmlns="http://www.w3.org/2000/svg" width="24" height="24" fill="none" viewBox="0 0 24 24"><path fill="currentColor" fill-rule="evenodd" d="M2.25 0h19.5c.413 0 .75.338.75.75v22.5c0 .413-.337.75-.75.75H2.25a.75.75 0 0 1-.75-.75V.75c0-.412.337-.75.75-.75m15 3.375a1.124 1.124 0 1 0-2.25 0c0 .623.502 1.125 1.125 1.125.622 0 1.125-.502 1.125-1.125m-12.375 10.5A7.13 7.13 0 0 0 12 21a7.13 7.13 0 0 0 7.125-7.125A7.13 7.13 0 0 0 12 6.75a7.13 7.13 0 0 0-7.125 7.125M18 3.375c0 .623.503 1.125 1.125 1.125s1.125-.502 1.125-1.125a1.124 1.124 0 1 0-2.25 0m-.45 11.355a9 9 0 0 0-.367-.195l-.023-.012c-.643-.348-1.199-.648-2.385-.648-1.193 0-1.756.304-2.404.654l-.01.006-.02.01c-.723.388-1.548.83-3.108.83-1.335 0-2.13-.322-2.79-.66.412 2.7 2.745 4.785 5.557 4.785s5.138-2.078 5.55-4.77" clip-rule="evenodd"/></svg>
